X:1
T:De Profundis
T:Estêvão Lopes Morago edit BMarble
T:Psalm 129
T:De Profundis
T:Copyright © 2014 by CPDL.  This edition can be fully distributed, duplicated, performed, and recorded 
T:Copyright © 2014 by CPDL.  This edition can be fully distributed, duplicated, performed, and recorded 
T:Copyright © 2014 by CPDL.  This edition can be fully distributed, duplicated, performed, and recorded 
T:Copyright © 2014 by CPDL.  This edition can be fully distributed, duplicated, performed, and recorded 
T:Copyright © 2014 by CPDL.  This edition can be fully distributed, duplicated, performed, and recorded 
C:Estêvão Lopes Morago
C:edit BMarble
Z:Psalm 129
Z:Copyright © 2014 by CPDL.  This edition can be fully distributed, duplicated, performed, and recorded
%%score [ 1 2 3 4 ]
L:1/8
Q:1/2=80
M:2/2
K:F
V:1 treble nm="Soprano" snm="S."
V:2 treble nm="Alto" snm="A."
V:3 treble-8 transpose=-12 nm="Tenor" snm="T."
V:4 bass nm="Bass" snm="B."
V:1
 A8- | A4 G4 | A8 | D4 d4 | d4 c4 | B8 | A4 D4- | D2 D2 _E4 | D8- | D8 | =E4 F4- | F4 F4 | z8 | %13
w: De|_ pro-|fun-|dis cla-|ma- vi|ad|te, de|_ pro- fun-|dis|_|cla- ma-|* vi,||
 A8- | A4 A4 | B8 | A8 | A8 | d6 e2 | c2 A2 d4- | d2 c2 c4- | c4 B2 A2 | G4 A4 | z4 G4- | G4 G4 | %25
w: de|_ pro-|fun-|dis|cla-|ma- *||||* vi,|de|_ pro-|
 A8 | D4 d4 | d4 c4 | B4 A4 | G4 A4 | (B6 A2 | G8) | F8- | F4 F4 | F8 || G6 A2 | B6 A2 | %37
w: fun-|dis cla-|ma- vi|ad te,|Do- mi-|ne, _|_|Do-|* mi-|ne,|Do- *||
 F2 G2 A4- | A2 G2 G4- | G4 ^F4 | G8 | z8 | z4 G4 | G4 D4 | E4 ^F4 | (G2 =F2 E4 | D8) | C4 c4 | %48
w: ||* mi-|ne,||ex-|au- di|vo- cem|me- * *||am, ex-|
 c4 G4 | A4 B4 | c8 | F8 | A6 G2 | (F4 E4) | D4 d4 | d4 A4 | =B8 | c4 d4- | d2 c2 c4- | c4 =B2 A2 | %60
w: au- di|vo- cem|me-|am,|vo- cem|me- *|am, ex-|au- di|vo-|cem me-|||
 =B8 |] %61
w: am.|
V:2
 z8 | z8 | D8- | D4 D4 | _E8 | D4 G4 | G4 ^F2 E2 | ^F4 G4- | G4 ^F4 | G4 D4 | ^C4 D4 | A,4 A4 | %12
w: ||De|_ pro-|fun-|dis cla-|ma- * *|||vi, de|pro- fun-|dis cla-|
 G4 =F4 | D4 G4- | G4 F4 | D4 D4 | F8 | E4 A4- | A4 G4 | A8- | A8 | z4 D4- | D4 D4 | _E8 | D4 G4 | %25
w: ma- vi,|cla- ma-|* vi,|de pro-|fun-|dis cla-|* ma-|vi,|_|de|_ pro-|fun-|dis cla-|
 G4 (^F2 E2 | ^F4) D4 | G8- | G4 =F4 | _E4 F4 | G4 F4 | _E4 E4- | (E4 D4 | C6) C2 | D8 || _E8 | %36
w: ma- vi, _|_ cla-|ma-|* vi|ad te,|Do- mi-|ne, Do-||* mi-|ne,|Do-|
 F8- | F4 _E4 | D4 D4 | D4 A,4 | =B,8- | B,4 C4 | (D4 C4) | G,8 | z8 | z4 G4 | G4 D4 | E6 F2 | G8 | %49
w: |* mi-|ne, ex-|au- di|vo-|* cem|me- *|am,||ex-|au- di|vo- cem|me-|
 F4 F4 | F4 C4 | D6 E2 | F2 D2 F4- | F2 G2 A4- | A2 G2 G4- | G4 ^F4 | G4 G4 | G4 D4 | E6 F2 | G8 | %60
w: am, ex-|au- di|vo- cem|me- * *||||am, ex-|au- di|vo- cem|me-|
 D8 |] %61
w: am.|
V:3
 z8 | z8 | z8 | z8 | z8 | z8 | z8 | A8- | A4 A4 | B8 | A4 d4 | d4 (c2 B2 | c4) d4 | f4 (e2 d2 | %14
w: |||||||De|_ pro-|fun-|dis cla-|ma- vi, _|_ cla-|ma- vi, _|
 c4) d4- | d4 B4 | c2 A2 d4- | d4 c4 | B4 d4 | f8 | e4 A4 | A4 B4- | B4 A4 | G4 c4- | (c4 =B4) | %25
w: _ de|_ pro-|fun- * *||dis cla-|ma-|vi, de|pro- fun-|* dis|cla- ma-||
 d8- | d8 | z4 G4 | (d6 c2 | _B4) A4 | G4 d4- | d4 c4- | c2 B2 B4- | B4 A4 | B8 || B6 c2 | d8- | %37
w: vi,|_|cla-|ma- *|* vi|ad te,|_ Do-||* mi-|ne,|Do- *||
 d4 c4 | B4 A2 G2 | A6 A2 | G4 d4 | d4 A4 | =B4 c4 | d2 c2 =B2 A2 | =B2 c2 d4- | d2 c2 c4- | %46
w: ||* mi-|ne, ex-|au- di|vo- cem|me- * * *|||
 c4 =B4 | c8 | c8- | c4 _B4- | B4 A4 | B4 d4 | d4 A4 | B4 c4 | d4 B4 | A8 | G8- | G8- | G8- | G8- | %60
w: |am,|vo-|* cem|_ me-|am, ex-|au- di|vo- cem|me- am,|me-|am.|_|||
 G8 |] %61
w: |
V:4
 z8 | z8 | z8 | z8 | z8 | z8 | D,8- | D,4 ^C,4 | D,8 | G,,4 G,4 | (G,4 F,2 E,2 | F,8) | =E,4 D,4- | %13
w: ||||||De|_ pro-|fun-|dis cla-|ma- * *||vi, de|
 D,4 (C,2 B,,2 | A,,4) D,4 | G,,8 | A,,8- | A,,4 A,,4 | B,,8 | A,,4 A,,4 | (A,6 G,2 | ^F,4) G,4- | %22
w: _ pro- *|* fun-|dis,|de|_ pro-|fun-|dis cla-|ma- *|* vi,|
 G,4 =F,4 | (_E,2 D,2 C,4) | G,8 | D,8- | D,4 D,4 | _E,8 | D,4 D,4 | G,4 F,4 | _E,4 D,4 | _E,8 | %32
w: _ cla-|ma- * *|vi,|de|_ pro-|fun-|dis cla-|ma- vi|ad te,|Do-|
 F,8- | F,8 | B,,8 || _E,8 | B,,6 C,2 | D,8- | D,8 | D,8 | G,,8 | z8 | z8 | z4 G,4 | G,4 D,4 | %45
w: mi-||ne,|Do-||||mi-|ne,|||ex-|au- di|
 E,6 F,2 | G,8 | C,8- | C,8 | F,8 | F,8 | z8 | z4 D,4 | D,4 A,,4 | B,,6 C,2 | D,8 | G,,8 | %57
w: vo- cem|me-|am,|_|me-|am,||ex-|au- di|vo- cem|me-|am,|
 C,4 =B,,4 | C,8 | G,,8- | G,,8 |] %61
w: vo- cem|me-|am.|_|

